X:1
T:O sacrum convivium
T:Richard Dering
T:Source : Cantica sacra---London---W.Godbid---1674. Editor : André Vierendeels (19/08/17).
T:O sacrum convivium
T:©
T:©
T:©
T:©
C:Richard Dering
Z:©
%%score [ 1 2 ] 3
L:1/8
Q:1/4=120
M:2/2
K:C
V:1 treble nm="Soprano" snm="S"
V:2 bass nm="Bass" snm="B"
V:3 bass nm="MusicXML Part"
V:1
 G4 B4- | B4 A2 B2 | c6 c2 | B8 | z8 | z8 | z4 z2 B2 | c8- | c4 B2 e2 | e6 d2 | d8 | z2 B2 d4 | %12
w: O sa-|* crum con-|vi- vi-|um|||O|sa-|* crum con-|vi- vi-|um,|in quo|
 z2 AB c2 B2 | G2 A3 BAG | ^F3 G A4 | z2 EF G2 G2- | G2 Bc d4- | d4 c2 B2 | A6 A2 | G8 | %20
w: Chri- stus su- mi-|tur, in quo Chri- stus|su- mi- tur,|in quo Chri- stus,|_ in quo Chri-|* stus su-|* mi-|tur,|
 z2 g2 e3 e | ^c4 z2 A2 | d3 c B2 A2 | A6 ^G2 | A2 e2 ^c3 c | d4 z2 B2 | ^G3 G A2 ee | ^f6 e2 | %28
w: re- col- li-|tur me-|mo- ri- a, me-|mo- ri-|a, re- col- li-|tur me-|mo- i- a Pas- si-|o- nis|
 ^d2 e4 dd | e6 e2 | d4 c2 GG | G6 A2 | B4 !fermata!A4 | G8 |] %34
w: e- jus, Pas- si-|o- nis|e- jus, Pas- si-|o- nis|e- *|jus.|
V:2
 z8 | z8 | z8 | z4 G,,4 | D,6 C,D, | E,6 E,2 | D,4 z2 G,2 | F,4 ^F,4 | G,4 ^G,2 G,2 | A,4 A,,4 | %10
w: |||O|sa- crum con-|vi- vi-|um, O|sa- *|crum _ con|vi- vi-|
 D,4 z2 D,2 | G,6 B,,2 | D,4 E,4 | D,4 B,,3 C, |"^#" D,4 z2 A,,B,, |"^#" C,2 C,4 E,F, | %16
w: um, in|quo, in|quo Chri-|stus su- mi-|tur, in quo|Chri- stus, in quo|
 G,2 G,4 B,,C, | D,4 C,4 | D,6 D,2 | G,,4 z2 G,2 | E,3 E, ^C,4 | z2 A,2 ^F,2 F,2 | D,6 C,D, | %23
w: Chri- tus, in quo|Chri- stus|su- mi-|tur, re-|col- li- tur|me- mo- ri-|a, me- *|
 E,6 E,2 | A,,4 z2 A,2 | ^F,3 F, G,4 | z2 E,2 ^C,3 C, | D,2 D,D, D,3 C, | B,,8 | E,2 E,E, C,2 C,2 | %30
w: mo- ri-|a, re-|col- li- tur|me- mo- ri-|a Pa- si- o- nis|e-|jus, Pas- si- o- nis|
 G,4 C,2 C,C, | C,4 B,,4 | D,8 | !fermata!G,,8 |] %34
w: e- jus, Pas- si-|o- nis|e-|jus.|
V:3
"^BC" G,8- |"^6" G,4 ^F,2 G,2 |"^7 6" A,8 | G,4 G,,4 | D,6 C,D, |"^7 6" E,8 | D,6 G,2 | F,4 ^F,4 | %8
"^6" G,4 ^G,4 |"^4""^3" A,4 A,,4 | D,6 D,2 |"^6" G,6 B,,2 |"^6" D,4 E,4- | %13
"^6""^6" E,2 D,2 B,,3 C, | D,6 A,,B,, | C,2 C,4 E,^F, | G,2 G,4 B,,C, |"^3""^4" D,6 C,2 |"^3" D,8 | %19
 G,,6 G,2 | E,4 ^C,4 | A,,2 A,2 ^F,3 F, |"^6" D,6 C,D, |"^4             3" E,8 |"^3#" A,,6 A,2 | %25
"^6" ^F,3 F, G,4 |"^6" E,4 ^C,3 C, | D,4- D,3 C, |"^# 3 4 3" B,,8 | E,2 E,E, C,2 C,2 | %30
 G,,4 C,3 C, |"^6" C,4 B,,4 |"^6 5\n3 4 3" D,8 | !fermata!G,,8 |] %34

